svg/nature/flower_3_line.svg

<?xml version="1.0" encoding="UTF-8"?>
<svg width="24px" height="24px" viewBox="0 0 24 24" version="1.1" xmlns="http://www.w3.org/2000/svg" xmlns:xlink="http://www.w3.org/1999/xlink">
    <title>flower_3_line</title>
    <g id="Icon" stroke="none" stroke-width="1" fill="none" fill-rule="evenodd">
        <g id="Nature" transform="translate(-192.000000, -96.000000)">
            <g id="flower_3_line" transform="translate(192.000000, 96.000000)">
                <path d="M24,0 L24,24 L0,24 L0,0 L24,0 Z M12.5935,23.2578 L12.5819,23.2595 L12.5109,23.295 L12.4919,23.2987 L12.4767,23.295 L12.4057,23.2595 C12.3958,23.2564 12.387,23.259 12.3821,23.2649 L12.378,23.2758 L12.3609,23.7031 L12.3659,23.7235 L12.3769,23.7357 L12.4805,23.8097 L12.4953,23.8136 L12.5071,23.8097 L12.6107,23.7357 L12.6233,23.7197 L12.6267,23.7031 L12.6096,23.2758 C12.6076,23.2657 12.601,23.2593 12.5935,23.2578 Z M12.8584,23.1453 L12.8445,23.1473 L12.6598,23.2397 L12.6499,23.2499 L12.6472,23.2611 L12.6651,23.6906 L12.6699,23.7034 L12.6784,23.7105 L12.8793,23.8032 C12.8914,23.8069 12.9022,23.803 12.9078,23.7952 L12.9118,23.7812 L12.8777,23.1665 C12.8753,23.1546 12.8674,23.147 12.8584,23.1453 Z M12.143,23.1473 C12.1332,23.1424 12.1222,23.1453 12.1156,23.1526 L12.1099,23.1665 L12.0758,23.7812 C12.0751,23.7927 12.0828,23.8019 12.0926,23.8046 L12.1083,23.8032 L12.3092,23.7105 L12.3186,23.7024 L12.3225,23.6906 L12.3404,23.2611 L12.3372,23.2485 L12.3278,23.2397 L12.143,23.1473 Z" id="MingCute" fill-rule="nonzero"></path>
                <path d="M15.31,3 C18.4525,3 21,5.5475 21,8.69 C21,9.92424 20.6062,11.0677 19.9386,12 C20.6062,12.9323 21,14.0758 21,15.31 C21,18.4525 18.4525,21 15.31,21 C14.0758,21 12.9323,20.6062 12,19.9386 C11.0677,20.6062 9.92424,21 8.69,21 C5.5475,21 3,18.4525 3,15.31 C3,14.0758 3.39379,12.9323 4.06143,12 C3.39379,11.0677 3,9.92424 3,8.69 C3,5.5475 5.5475,3 8.69,3 C9.92424,3 11.0677,3.39379 12,4.06143 C12.9323,3.39379 14.0758,3 15.31,3 Z M18.4782,13.4169 C17.5729,14.0247 16.4824,14.38 15.31,14.38 L15.2158,14.3792 L15.2158,14.3792 C14.487,15.3626 13.318,16 12,16 C11.8929,16 11.7869,15.9958 11.6819,15.9875 C11.8208,16.7371 12.1862,17.4066 12.7058,17.9242 C13.3742,18.5901 14.2933,19 15.31,19 C17.3479,19 19,17.3479 19,15.31 C19,14.6176 18.8099,13.9704 18.4782,13.4169 Z M8.01246,11.6819 C7.26293,11.8208 6.59341,12.1862 6.07579,12.7058 C5.40988,13.3742 5,14.2933 5,15.31 C5,17.3479 6.65207,19 8.69,19 C9.38244,19 10.0296,18.8099 10.5831,18.4782 C9.97531,17.5729 9.62,16.4824 9.62,15.31 L9.62076,15.2158 C8.6374,14.487 8,13.318 8,12 C8,11.8929 8.00421,11.7869 8.01246,11.6819 Z M12,10 C10.8954,10 10,10.8954 10,12 C10,13.1046 10.8954,14 12,14 C13.1046,14 14,13.1046 14,12 C14,10.8954 13.1046,10 12,10 Z M15.31,5 C14.6176,5 13.9704,5.19012 13.4169,5.52175 C14.0247,6.42714 14.38,7.5176 14.38,8.69 L14.3792,8.78422 C15.3626,9.51297 16,10.682 16,12 C16,12.1071 15.9958,12.2131 15.9875,12.3181 C16.7371,12.1792 17.4066,11.8138 17.9242,11.2942 C18.5901,10.6258 19,9.70672 19,8.69 C19,6.65207 17.3479,5 15.31,5 Z M8.69,5 C6.65207,5 5,6.65207 5,8.69 C5,9.38244 5.19012,10.0296 5.52175,10.5831 C6.42714,9.97531 7.5176,9.62 8.69,9.62 L8.78422,9.62076 L8.78422,9.62076 C9.51297,8.6374 10.682,8 12,8 C12.1071,8 12.2131,8.00421 12.3181,8.01246 C12.1792,7.26293 11.8138,6.59341 11.2942,6.07579 C10.6258,5.40988 9.70672,5 8.69,5 Z" id="形状" fill="#09244B"></path>
            </g>
        </g>
    </g>
</svg>

<svg xmlns="http://www.w3.org/2000/svg" width="24" height="24"><g fill="none" fill-rule="evenodd"><path d="M24 0v24H0V0h24ZM12.594 23.258l-.012.002-.071.035-.02.004-.014-.004-.071-.036c-.01-.003-.019 0-.024.006l-.004.01-.017.428.005.02.01.013.104.074.015.004.012-.004.104-.074.012-.016.004-.017-.017-.427c-.002-.01-.009-.017-.016-.018Zm.264-.113-.014.002-.184.093-.01.01-.003.011.018.43.005.012.008.008.201.092c.012.004.023 0 .029-.008l.004-.014-.034-.614c-.003-.012-.01-.02-.02-.022Zm-.715.002a.023.023 0 0 0-.027.006l-.006.014-.034.614c0 .012.007.02.017.024l.015-.002.201-.093.01-.008.003-.011.018-.43-.003-.012-.01-.01-.184-.092Z"/><path fill="#09244B" d="M15.31 3a5.69 5.69 0 0 1 4.629 9A5.69 5.69 0 0 1 12 19.939 5.69 5.69 0 0 1 4.061 12 5.69 5.69 0 0 1 12 4.061 5.668 5.668 0 0 1 15.31 3Zm3.168 10.417a5.666 5.666 0 0 1-3.168.963h-.094a3.994 3.994 0 0 1-3.534 1.608c.139.75.504 1.419 1.024 1.936a3.69 3.69 0 0 0 5.772-4.507ZM8.012 11.682c-.75.139-1.419.504-1.936 1.024a3.69 3.69 0 0 0 4.507 5.772 5.667 5.667 0 0 1-.963-3.168v-.094a3.994 3.994 0 0 1-1.608-3.534ZM12 10a2 2 0 1 0 0 4 2 2 0 0 0 0-4Zm3.31-5c-.692 0-1.34.19-1.893.522.608.905.963 1.996.963 3.168v.094a3.994 3.994 0 0 1 1.608 3.534 3.678 3.678 0 0 0 1.936-1.024A3.69 3.69 0 0 0 15.31 5ZM8.69 5a3.69 3.69 0 0 0-3.168 5.583A5.667 5.667 0 0 1 8.69 9.62h.094a3.994 3.994 0 0 1 3.534-1.608 3.678 3.678 0 0 0-1.024-1.936A3.675 3.675 0 0 0 8.69 5Z"/></g></svg>
